X: 25543
T: Maries Hopsa
R: polka
M: 2/4
K: Gmajor
|:B2 Bd|c2 ce|d2 db|g2 ag|f2 AB|c2 fe|dB GA|Bd cA|
B2 Bd|c2 ce|d2 db|g2 ag|f2 AB|cd ef|gg/g/ gg|1 g2 dc:|2 g2 ^g2|
K:D
|:a2 (3 a^ga|f2 (3 fef|d2 (3 dcd|A3 d|ce Ac|eA ce|gb ag|f2 ^g2|
a2 (3 a^ga|f2 (3 fef|d2 (3 dcd|A3 d|ce Ac|eA Bd|dd/d/ dd|1 d2 f2:|d2 =c2|
K:G
|:B3 c|BD GB|d3 e|dB dg|b2 g2|d2 B2|dc Bc|A3 B|
A3 B|AD FA|c3 d|cA cf|a2 g2|f2 e2|ed ^cd|B2 A2|
B3 c|BD GB|d3 e|dB dg|b2 g2|d2 B2|dc Bc|a3 b|
c'3 b|ag fe|dg Be|d2 B>G|FG AB|cd ef|gg/g/ gg|1 g2 A2:|2 g2 z2||

